X: 7870
T: Compliments To Sean Maguire
R: hornpipe
M: 4/4
K: Cdorian
|:FE|DB,~B,2 FB,DF|E3E- EFG_A|=AF~F2 cFAc|~B2BA BBFE|
DB,~B,2 A,B,_A,B,|G,E~E2 EFG_A|=AF~F2 cFAc|B/c/B Ac B2:|
|:(3fgf|dBFB DFBc|dBAc BGFD|GeFd EcDB|AF~F2 cFAc|B/B/BfB bBfB|
gBfB AF~F2|1 G/G/G e z F/F/F d z|Ec A/B/c B2:|2 E/E/E cE dEcE|AG (3FGA B2||

